wp-content/themes/unity-2017/dist/images/design-icon.svg

<svg xmlns="http://www.w3.org/2000/svg" width="110" height="110" viewBox="0 0 110 110">
  <defs>
    <linearGradient id="a" x1="0%" y1="-32.236%" y2="100%">
      <stop stop-color="#F9C137" offset="0%"/>
      <stop stop-color="#F29127" offset="100%"/>
    </linearGradient>
    <linearGradient id="b" x1="0%" x2="97.363%" y1="0%" y2="97.363%">
      <stop stop-color="#FAC238" offset="0%"/>
      <stop stop-color="#F29127" offset="100%"/>
    </linearGradient>
    <linearGradient id="c" x1="-373.471%" x2="2664.519%" y1="-1009.081%" y2="1768.21%">
      <stop stop-color="#F9BE36" offset="0%"/>
      <stop stop-color="#F29127" offset="100%"/>
    </linearGradient>
  </defs>
  <g fill="none">
    <path fill="url(#a)" d="M108.166667,97.1345029 L106.333333,97.1345029 L106.333333,38.320802 C106.333333,35.1963241 103.95,32.8070175 100.833333,32.8070175 L89.8333333,32.8070175 L89.8333333,36.4828739 L100.833333,36.4828739 C101.933333,36.4828739 102.666667,37.2180451 102.666667,38.320802 L102.666667,98.9724311 C102.666667,100.075188 103.4,100.810359 104.5,100.810359 L106.333333,100.810359 L106.333333,106.324144 L3.66666667,106.324144 L3.66666667,100.810359 L5.5,100.810359 L99,100.810359 L99,97.1345029 L7.33333333,97.1345029 L7.33333333,38.320802 C7.33333333,37.2180451 8.06666667,36.4828739 9.16666667,36.4828739 L22,36.4828739 L22,32.8070175 L9.16666667,32.8070175 C6.05,32.8070175 3.66666667,35.1963241 3.66666667,38.320802 L3.66666667,97.1345029 L1.83333333,97.1345029 C0.733333333,97.1345029 0,97.8696742 0,98.9724311 L0,106.324144 C0,108.529657 1.46666667,110 3.66666667,110 L106.333333,110 C108.533333,110 110,108.529657 110,106.324144 L110,98.9724311 C110,97.8696742 109.266667,97.1345029 108.166667,97.1345029 Z"/>
    <path fill="url(#b)" d="M12.3508772,89.9260406 L12.3508772,42.2101823 L21.5175439,42.2101823 L21.5175439,38.5397317 L10.5175439,38.5397317 C9.41754386,38.5397317 8.68421053,39.2738218 8.68421053,40.374957 L8.68421053,91.7612659 C8.68421053,92.8624011 9.41754386,93.5964912 10.5175439,93.5964912 L32.5175439,93.5964912 L36.1842105,93.5964912 L43.5175439,93.5964912 L47.1842105,93.5964912 L56.3508772,93.5964912 L74.6842105,93.5964912 L98.5175439,93.5964912 C99.6175439,93.5964912 100.350877,92.8624011 100.350877,91.7612659 L100.350877,40.374957 C100.350877,39.2738218 99.6175439,38.5397317 98.5175439,38.5397317 L89.3508772,38.5397317 L89.3508772,42.2101823 L96.6842105,42.2101823 L96.6842105,89.9260406 L76.5175439,89.9260406 L76.5175439,1.83522532 C76.5175439,0.734090127 75.7842105,0 74.6842105,0 L56.3508772,0 C55.2508772,0 54.5175439,0.734090127 54.5175439,1.83522532 L54.5175439,89.9260406 L47.1842105,89.9260406 L47.1842105,78.9146887 L47.1842105,18.3522532 C47.1842105,17.9852081 47.0008772,17.4346405 46.8175439,17.251118 L41.5008772,1.28465772 C41.3175439,0.550567595 40.5842105,0 39.8508772,0 C39.1175439,0 38.3842105,0.550567595 38.2008772,1.28465772 L32.8842105,17.251118 C32.7008772,17.6181631 32.5175439,17.9852081 32.5175439,18.3522532 L32.5175439,78.9146887 L32.5175439,89.9260406 L12.3508772,89.9260406 Z M58.1842105,80.749914 L65.5175439,80.749914 L65.5175439,77.0794634 L58.1842105,77.0794634 L58.1842105,69.7385621 L65.5175439,69.7385621 L65.5175439,66.0681115 L58.1842105,66.0681115 L58.1842105,58.7272102 L65.5175439,58.7272102 L65.5175439,55.0567595 L58.1842105,55.0567595 L58.1842105,47.7158583 L65.5175439,47.7158583 L65.5175439,44.0454076 L58.1842105,44.0454076 L58.1842105,36.7045064 L65.5175439,36.7045064 L65.5175439,33.0340557 L58.1842105,33.0340557 L58.1842105,25.6931545 L65.5175439,25.6931545 L65.5175439,22.0227038 L58.1842105,22.0227038 L58.1842105,14.6818025 L65.5175439,14.6818025 L65.5175439,11.0113519 L58.1842105,11.0113519 L58.1842105,3.67045064 L72.8508772,3.67045064 L72.8508772,89.9260406 L58.1842105,89.9260406 L58.1842105,80.749914 Z M36.1842105,20.1874785 L38.0175439,20.1874785 L38.0175439,77.0794634 L36.1842105,77.0794634 L36.1842105,20.1874785 Z M41.6842105,20.1874785 L43.5175439,20.1874785 L43.5175439,77.0794634 L41.6842105,77.0794634 L41.6842105,20.1874785 Z M39.8508772,7.70794634 L42.7842105,16.5170279 L36.9175439,16.5170279 L39.8508772,7.70794634 Z M36.1842105,80.749914 L38.0175439,80.749914 L41.6842105,80.749914 L43.5175439,80.749914 L43.5175439,89.9260406 L36.1842105,89.9260406 L36.1842105,80.749914 Z"/>
    <rect width="3.86" height="3.86" x="16.404" y="46.316" fill="url(#c)"/>
    <rect width="3.86" height="3.86" x="26.053" y="46.316" fill="url(#c)"/>
    <rect width="3.86" height="3.86" x="16.404" y="53.07" fill="url(#c)"/>
    <rect width="3.86" height="3.86" x="26.053" y="53.07" fill="url(#c)"/>
    <rect width="3.86" height="3.86" x="16.404" y="59.825" fill="url(#c)"/>
    <rect width="3.86" height="3.86" x="26.053" y="59.825" fill="url(#c)"/>
    <rect width="3.86" height="3.86" x="16.404" y="67.544" fill="url(#c)"/>
    <rect width="3.86" height="3.86" x="26.053" y="67.544" fill="url(#c)"/>
    <rect width="3.86" height="3.86" x="16.404" y="75.263" fill="url(#c)"/>
    <rect width="3.86" height="3.86" x="26.053" y="75.263" fill="url(#c)"/>
    <rect width="3.86" height="3.86" x="16.404" y="82.982" fill="url(#c)"/>
    <rect width="3.86" height="3.86" x="26.053" y="82.982" fill="url(#c)"/>
    <rect width="3.86" height="3.86" x="81.053" y="46.316" fill="url(#c)"/>
    <rect width="3.86" height="3.86" x="89.737" y="46.316" fill="url(#c)"/>
    <rect width="3.86" height="3.86" x="81.053" y="53.07" fill="url(#c)"/>
    <rect width="3.86" height="3.86" x="89.737" y="53.07" fill="url(#c)"/>
    <rect width="3.86" height="3.86" x="81.053" y="59.825" fill="url(#c)"/>
    <rect width="3.86" height="3.86" x="89.737" y="59.825" fill="url(#c)"/>
    <rect width="3.86" height="3.86" x="81.053" y="67.544" fill="url(#c)"/>
    <rect width="3.86" height="3.86" x="89.737" y="67.544" fill="url(#c)"/>
    <rect width="3.86" height="3.86" x="81.053" y="75.263" fill="url(#c)"/>
    <rect width="3.86" height="3.86" x="89.737" y="75.263" fill="url(#c)"/>
    <rect width="3.86" height="3.86" x="81.053" y="82.982" fill="url(#c)"/>
    <rect width="3.86" height="3.86" x="89.737" y="82.982" fill="url(#c)"/>
  </g>
</svg>

<svg xmlns="http://www.w3.org/2000/svg" width="110" height="110" viewBox="0 0 110 110">
<defs>
<linearGradient id="f" x1="25.377%" x2="74.623%" y1="-32.236%" y2="100%">
<stop stop-color="#F9C137" offset="0"/>
<stop stop-color="#F29127" offset="1"/>
</linearGradient>
<linearGradient id="e" x2="97.363%" y1="2.041%" y2="95.43%">
<stop stop-color="#FAC238" offset="0"/>
<stop stop-color="#F29127" offset="1"/>
</linearGradient>
<linearGradient id="d" x1="-373.47%" x2="2664.5%" y1="-1009.1%" y2="1768.2%">
<stop stop-color="#F9BE36" offset="0"/>
<stop stop-color="#F29127" offset="1"/>
</linearGradient>
</defs>
<path d="m108.17 97.135h-1.8333v-58.814c0-3.1245-2.3833-5.5138-5.5-5.5138h-11v3.6759h11c1.1 0 1.8333 0.73517 1.8333 1.8379v60.652c0 1.1028 0.73333 1.8379 1.8333 1.8379h1.8333v5.5138h-102.67v-5.5138h1.8333 93.5v-3.6759h-91.667v-58.814c0-1.1028 0.73333-1.8379 1.8333-1.8379h12.833v-3.6759h-12.833c-3.1167 0-5.5 2.3893-5.5 5.5138v58.814h-1.8333c-1.1 0-1.8333 0.73517-1.8333 1.8379v7.3517c0 2.2055 1.4667 3.6759 3.6667 3.6759h102.67c2.2 0 3.6667-1.4703 3.6667-3.6759v-7.3517c0-1.1028-0.73333-1.8379-1.8333-1.8379z" fill="url(#f)"/>
<path d="m12.351 89.926v-47.716h9.1667v-3.6705h-11c-1.1 0-1.8333 0.73409-1.8333 1.8352v51.386c0 1.1011 0.73333 1.8352 1.8333 1.8352h22 3.6667 7.3333 3.6667 9.1667 18.333 23.833c1.1 0 1.8333-0.73409 1.8333-1.8352v-51.386c0-1.1011-0.73333-1.8352-1.8333-1.8352h-9.1667v3.6705h7.3333v47.716h-20.167v-88.091c0-1.1011-0.73333-1.8352-1.8333-1.8352h-18.333c-1.1 0-1.8333 0.73409-1.8333 1.8352v88.091h-7.3333v-11.011-60.562c0-0.36705-0.18333-0.91761-0.36667-1.1011l-5.3167-15.966c-0.18333-0.73409-0.91667-1.2847-1.65-1.2847s-1.4667 0.55057-1.65 1.2847l-5.3167 15.966c-0.18333 0.36705-0.36667 0.73409-0.36667 1.1011v60.562 11.011h-20.167zm45.833-9.1761h7.3333v-3.6705h-7.3333v-7.3409h7.3333v-3.6705h-7.3333v-7.3409h7.3333v-3.6705h-7.3333v-7.3409h7.3333v-3.6705h-7.3333v-7.3409h7.3333v-3.6705h-7.3333v-7.3409h7.3333v-3.6705h-7.3333v-7.3409h7.3333v-3.6705h-7.3333v-7.3409h14.667v86.256h-14.667v-9.1761zm-22-60.562h1.8333v56.892h-1.8333v-56.892zm5.5 0h1.8333v56.892h-1.8333v-56.892zm-1.8333-12.48l2.9333 8.8091h-5.8667l2.9333-8.8091zm-3.6667 73.042h1.8333 3.6667 1.8333v9.1761h-7.3333v-9.1761z" fill="url(#e)"/>
<rect x="16.404" y="46.316" width="3.86" height="3.86" fill="url(#d)"/>
<rect x="26.053" y="46.316" width="3.86" height="3.86" fill="url(#d)"/>
<rect x="16.404" y="53.07" width="3.86" height="3.86" fill="url(#d)"/>
<rect x="26.053" y="53.07" width="3.86" height="3.86" fill="url(#d)"/>
<rect x="16.404" y="59.825" width="3.86" height="3.86" fill="url(#d)"/>
<rect x="26.053" y="59.825" width="3.86" height="3.86" fill="url(#d)"/>
<rect x="16.404" y="67.544" width="3.86" height="3.86" fill="url(#d)"/>
<rect x="26.053" y="67.544" width="3.86" height="3.86" fill="url(#d)"/>
<rect x="16.404" y="75.263" width="3.86" height="3.86" fill="url(#d)"/>
<rect x="26.053" y="75.263" width="3.86" height="3.86" fill="url(#d)"/>
<rect x="16.404" y="82.982" width="3.86" height="3.86" fill="url(#d)"/>
<rect x="26.053" y="82.982" width="3.86" height="3.86" fill="url(#d)"/>
<rect x="81.053" y="46.316" width="3.86" height="3.86" fill="url(#d)"/>
<rect x="89.737" y="46.316" width="3.86" height="3.86" fill="url(#d)"/>
<rect x="81.053" y="53.07" width="3.86" height="3.86" fill="url(#d)"/>
<rect x="89.737" y="53.07" width="3.86" height="3.86" fill="url(#d)"/>
<rect x="81.053" y="59.825" width="3.86" height="3.86" fill="url(#d)"/>
<rect x="89.737" y="59.825" width="3.86" height="3.86" fill="url(#d)"/>
<rect x="81.053" y="67.544" width="3.86" height="3.86" fill="url(#d)"/>
<rect x="89.737" y="67.544" width="3.86" height="3.86" fill="url(#d)"/>
<rect x="81.053" y="75.263" width="3.86" height="3.86" fill="url(#d)"/>
<rect x="89.737" y="75.263" width="3.86" height="3.86" fill="url(#d)"/>
<rect x="81.053" y="82.982" width="3.86" height="3.86" fill="url(#d)"/>
<rect x="89.737" y="82.982" width="3.86" height="3.86" fill="url(#d)"/>
</svg>
